public/images/poses-sm/Halfmoon.svg

<svg width="800" height="900" fill="none" xmlns="http://www.w3.org/2000/svg"><path d="M646.546 528.094c-16.115-1.283-55.327 4.839-40.359 46.396 9.5 26.381 19.957 66.688 4.181 86.704-15.776 20.016 44.432 25.893 60.742-3.578 16.304-29.477 10.268-66.557-11.583-86.281-21.857-19.727-12.981-43.241-12.981-43.241Z" fill="#000" stroke="#000" stroke-width="5" stroke-miterlimit="10"/><path d="m631.878 419.656-30.519 5.999 8.47-47.214" fill="#fff"/><path d="m631.878 419.656-30.519 5.999 8.47-47.214" stroke="#000" stroke-width="5" stroke-miterlimit="10"/><path d="m631.878 419.656-30.519 5.999 8.47-47.214" stroke="#000" stroke-width="5" stroke-miterlimit="10"/><path d="M540.219 456.962s-2.225 110.321 1.262 133.693c3.487 23.368 29.32 102.173 29.32 102.173 3.812 14.94 1.194 27.534 10.161 44.23 8.964 16.695 10.775 14.534 12.462 12.253 1.688-2.285 4.323-45.912-6.307-58.347-3.503-4.094-3.542-4.946-4.672-7.583l-16.066-98.737 18.384-122.392-26.823-26.481-17.721 21.191Z" fill="#fff" stroke="#000" stroke-width="5" stroke-miterlimit="10"/><path d="M540.219 456.962s-2.225 110.321 1.262 133.693c3.487 23.368 29.32 102.173 29.32 102.173 3.812 14.94 1.194 27.534 10.161 44.23 8.964 16.695 10.775 14.534 12.462 12.253 1.688-2.285 4.323-45.912-6.307-58.347-3.503-4.094-3.542-4.946-4.672-7.583l-16.066-98.737 18.384-122.392-26.823-26.481-17.721 21.191Z" stroke="#000" stroke-width="5" stroke-miterlimit="10"/><path d="m609.832 378.438 26.775-107.271 24.554-92.173c1.558-4.743 1.456-9.139 1.322-12.688-.718-19.319 9.779-41.416 19.138-55.454 1.089-1.638 3.635-.937 3.717 1.024.402 9.508 7.353 15.616-7.166 56.602 0 0-11.764 83.914-17.555 105.738-5.789 21.825-28.734 145.438-28.734 145.438" fill="#fff"/><path d="m609.832 378.438 26.775-107.271 24.554-92.173c1.558-4.743 1.456-9.139 1.322-12.688-.718-19.319 9.779-41.416 19.138-55.454 1.089-1.638 3.635-.937 3.717 1.024.402 9.508 7.353 15.616-7.166 56.602 0 0-11.764 83.914-17.555 105.738-5.789 21.825-28.734 145.438-28.734 145.438" stroke="#000" stroke-width="5" stroke-miterlimit="10"/><path d="m609.832 378.438 26.775-107.271 24.554-92.173c1.558-4.743 1.456-9.139 1.322-12.688-.718-19.319 9.779-41.416 19.138-55.454 1.089-1.638 3.635-.937 3.717 1.024.402 9.508 7.353 15.616-7.166 56.602 0 0-11.764 83.914-17.555 105.738-5.789 21.825-28.734 145.438-28.734 145.438" stroke="#000" stroke-width="5" stroke-miterlimit="10"/><path d="M388.49 408.875c-36.616-21.415-52.787-47.839-88.635-70.531-36.867-23.337-68.15-48.052-104.107-73.216-12.837-8.991-26.663-19.986-42.885-28.032-4.413-2.194-12.825-10.04-19.181-6.278-13.832 8.196-26.956-22.437-34.513-33.167-13.054-18.538-30.337-58.295 9.628-13.543 4.898 5.489 17.593 12.819 24.613 16.541 40.884 21.673 70.641 34.757 112.263 51.252 26.639 10.567 50.42 25.443 76.762 36.073 24.43 9.858 45.359 17.423 72.378 23.904 23.777 5.709 39.728 9.874 60.124 16.103 0 0-7.77 23.267-8.533 47.328-1.271 40.076 4.996 57.39 4.996 57.39.608 2.136-6.451 5.679-6.267 8.18 1.5 20.308 3.715 47.221 1.634 63.928-3.828 30.745-5.336 51.558-11.518 79.852-9.477 43.384-17.952 84.19-14.545 128.322.494 6.388-.319 13.256 6.355 21.469 6.65 8.184 38.526 11.654 55.242 17.666 3.93 1.411 2.144 7.636-2.031 7.72l-74.631 1.056c-6.399.129-11.683-4.933-11.869-11.337-1.06-36.57.567-49.18-3.679-109.251-1.982-28.057-1.522-30.741-.817-55.645.58-20.526.075-46.41.964-66.791.904-20.78-9.517-79.764-1.962-109.445" fill="#fff"/><path d="M388.49 408.875c-36.616-21.415-52.787-47.839-88.635-70.531-36.867-23.337-68.15-48.052-104.107-73.216-12.837-8.991-26.663-19.986-42.885-28.032-4.413-2.194-12.825-10.04-19.181-6.278-13.832 8.196-26.956-22.437-34.513-33.167-13.054-18.538-30.337-58.295 9.628-13.543 4.898 5.489 17.593 12.819 24.613 16.541 40.884 21.673 70.641 34.757 112.263 51.252 26.639 10.567 50.42 25.443 76.762 36.073 24.43 9.858 45.359 17.423 72.378 23.904 23.777 5.709 39.728 9.874 60.124 16.103 0 0-7.77 23.267-8.533 47.328-1.271 40.076 4.996 57.39 4.996 57.39.608 2.136-6.451 5.679-6.267 8.18 1.5 20.308 3.715 47.221 1.634 63.928-3.828 30.745-5.336 51.558-11.518 79.852-9.477 43.384-17.952 84.19-14.545 128.322.494 6.388-.319 13.256 6.355 21.469 6.65 8.184 38.526 11.654 55.242 17.666 3.93 1.411 2.144 7.636-2.031 7.72l-74.631 1.056c-6.399.129-11.683-4.933-11.869-11.337-1.06-36.57.567-49.18-3.679-109.251-1.982-28.057-1.522-30.741-.817-55.645.58-20.526.075-46.41.964-66.791.904-20.78-9.517-79.764-1.962-109.445" stroke="#000" stroke-width="5" stroke-miterlimit="10"/><path d="M388.49 408.875c-36.616-21.415-52.787-47.839-88.635-70.531-36.867-23.337-68.15-48.052-104.107-73.216-12.837-8.991-26.663-19.986-42.885-28.032-4.413-2.194-12.825-10.04-19.181-6.278-13.832 8.196-26.956-22.437-34.513-33.167-13.054-18.538-30.337-58.295 9.628-13.543 4.898 5.489 17.593 12.819 24.613 16.541 40.884 21.673 70.641 34.757 112.263 51.252 26.639 10.567 50.42 25.443 76.762 36.073 24.43 9.858 45.359 17.423 72.378 23.904 23.777 5.709 39.728 9.874 60.124 16.103 0 0-7.77 23.267-8.533 47.328-1.271 40.076 4.996 57.39 4.996 57.39.608 2.136-6.451 5.679-6.267 8.18 1.5 20.308 3.715 47.221 1.634 63.928-3.828 30.745-5.336 51.558-11.518 79.852-9.477 43.384-17.952 84.19-14.545 128.322.494 6.388-.319 13.256 6.355 21.469 6.65 8.184 38.526 11.654 55.242 17.666 3.93 1.411 2.144 7.636-2.031 7.72l-74.631 1.056c-6.399.129-11.683-4.933-11.869-11.337-1.06-36.57.567-49.18-3.679-109.251-1.982-28.057-1.522-30.741-.817-55.645.58-20.526.075-46.41.964-66.791.904-20.78-9.517-79.764-1.962-109.445" stroke="#000" stroke-width="5" stroke-miterlimit="10"/><path d="M446.448 374.236c-1.82 27.764 1.777 48.238 4.955 58.464 0 0 46.274 2.612 88.82 24.265 0 0 21.988-9.605 41.654 22.437 0 0 15.612-22.303 55.582 13.003l18.173-2.18-5.863-21.538s-20.253-10.135-17.893-49.031c0 0-19.031-17.37-22.05-41.215 0 0-20.276-12.401-54.611-20.579-34.333-8.179-77.666-20.772-100.275-29.878.001 0-6.634 17.917-8.492 46.252Z" fill="#fff" stroke="#000" stroke-width="5" stroke-miterlimit="10"/><path d="M446.448 374.236c-1.82 27.764 1.777 48.238 4.955 58.464 0 0 46.274 2.612 88.82 24.265 0 0 21.988-9.605 41.654 22.437 0 0 15.612-22.303 55.582 13.003l18.173-2.18-5.863-21.538s-20.253-10.135-17.893-49.031c0 0-19.031-17.37-22.05-41.215 0 0-20.276-12.401-54.611-20.579-34.333-8.179-77.666-20.772-100.275-29.878.001 0-6.634 17.917-8.492 46.252Z" stroke="#000" stroke-width="5" stroke-miterlimit="10"/><path d="M634.859 495.937c.06 7.899 6.275 12.128 9.412 20.224 4.98 12.862 26.058 16.216 38.949 7.772 17.02-11.151-18.351-74.55-29.171-69.759-6.409 2.837-14.481 14.272-16.704 28.908-.72 4.709-2.486 12.855-2.486 12.855Z" fill="#fff" stroke="#000" stroke-width="5" stroke-miterlimit="10"/><path d="M634.859 495.937c.06 7.899 6.275 12.128 9.412 20.224 4.98 12.862 26.058 16.216 38.949 7.772 17.02-11.151-18.351-74.55-29.171-69.759-6.409 2.837-14.481 14.272-16.704 28.908-.72 4.709-2.486 12.855-2.486 12.855Z" stroke="#000" stroke-width="5" stroke-miterlimit="10"/><path d="M686.354 512.345c-6.586-10.899-26.209-26.183-37.966-14.573-13.212 13.052-12.235.078-12.708-3.557-.473-3.638 3.896-13.544 1.863-13.48-2.032.058-16.928 20.487-9.862 37.618 7.062 17.123 17.446 21.146 28.52 21.286 11.072.133 24.973-6.96 30.263-16.791 5.291-9.829-.11-10.503-.11-10.503Z" fill="#000" stroke="#000" stroke-width="5" stroke-miterlimit="10"/><path d="M631.874 429.29c-13.998-16.179-34.514-24.537-49.048-5.998-16.206 20.675-6.351 34.174 7.482 49.958M168.905 218.682c-2.523 5.595-4.685 16.301-5.784 24.035M393.027 698.819c2.696 2.734 22.552 2.359 26.973 0" stroke="#000" stroke-width="5" stroke-miterlimit="10"/></svg>

<svg width="800" height="900" viewBox="0 0 800 900" fill="none" xmlns="http://www.w3.org/2000/svg">
<path d="M646.546 528.094C630.431 526.811 591.219 532.933 606.187 574.49C615.687 600.871 626.144 641.178 610.368 661.194C594.592 681.21 654.8 687.087 671.11 657.616C687.414 628.139 681.378 591.059 659.527 571.335C637.67 551.608 646.546 528.094 646.546 528.094Z" fill="black" stroke="black" stroke-width="5" stroke-miterlimit="10"/>
<path d="M631.878 419.656L601.359 425.655L609.829 378.441" fill="white"/>
<path d="M631.878 419.656L601.359 425.655L609.829 378.441" stroke="black" stroke-width="5" stroke-miterlimit="10"/>
<path d="M631.878 419.656L601.359 425.655L609.829 378.441" stroke="black" stroke-width="5" stroke-miterlimit="10"/>
<path d="M540.219 456.962C540.219 456.962 537.994 567.283 541.481 590.655C544.968 614.023 570.801 692.828 570.801 692.828C574.613 707.768 571.995 720.362 580.962 737.058C589.926 753.753 591.737 751.592 593.424 749.311C595.112 747.026 597.747 703.399 587.117 690.964C583.614 686.87 583.575 686.018 582.445 683.381L566.379 584.644L584.763 462.252L557.94 435.771L540.219 456.962Z" fill="white" stroke="black" stroke-width="5" stroke-miterlimit="10"/>
<path d="M540.219 456.962C540.219 456.962 537.994 567.283 541.481 590.655C544.968 614.023 570.801 692.828 570.801 692.828C574.613 707.768 571.995 720.362 580.962 737.058C589.926 753.753 591.737 751.592 593.424 749.311C595.112 747.026 597.747 703.399 587.117 690.964C583.614 686.87 583.575 686.018 582.445 683.381L566.379 584.644L584.763 462.252L557.94 435.771L540.219 456.962Z" stroke="black" stroke-width="5" stroke-miterlimit="10"/>
<path d="M609.832 378.438L636.607 271.167L661.161 178.994C662.719 174.251 662.617 169.855 662.483 166.306C661.765 146.987 672.262 124.89 681.621 110.852C682.71 109.214 685.256 109.915 685.338 111.876C685.74 121.384 692.691 127.492 678.172 168.478C678.172 168.478 666.408 252.392 660.617 274.216C654.828 296.041 631.883 419.654 631.883 419.654" fill="white"/>
<path d="M609.832 378.438L636.607 271.167L661.161 178.994C662.719 174.251 662.617 169.855 662.483 166.306C661.765 146.987 672.262 124.89 681.621 110.852C682.71 109.214 685.256 109.915 685.338 111.876C685.74 121.384 692.691 127.492 678.172 168.478C678.172 168.478 666.408 252.392 660.617 274.216C654.828 296.041 631.883 419.654 631.883 419.654" stroke="black" stroke-width="5" stroke-miterlimit="10"/>
<path d="M609.832 378.438L636.607 271.167L661.161 178.994C662.719 174.251 662.617 169.855 662.483 166.306C661.765 146.987 672.262 124.89 681.621 110.852C682.71 109.214 685.256 109.915 685.338 111.876C685.74 121.384 692.691 127.492 678.172 168.478C678.172 168.478 666.408 252.392 660.617 274.216C654.828 296.041 631.883 419.654 631.883 419.654" stroke="black" stroke-width="5" stroke-miterlimit="10"/>
<path d="M388.49 408.875C351.874 387.46 335.703 361.036 299.855 338.344C262.988 315.007 231.705 290.292 195.748 265.128C182.911 256.137 169.085 245.142 152.863 237.096C148.45 234.902 140.038 227.056 133.682 230.818C119.85 239.014 106.726 208.381 99.1692 197.651C86.1154 179.113 68.8318 139.356 108.797 184.108C113.695 189.597 126.39 196.927 133.41 200.649C174.294 222.322 204.051 235.406 245.673 251.901C272.312 262.468 296.093 277.344 322.435 287.974C346.865 297.832 367.794 305.397 394.813 311.878C418.59 317.587 434.541 321.752 454.937 327.981C454.937 327.981 447.167 351.248 446.404 375.309C445.133 415.385 451.4 432.699 451.4 432.699C452.008 434.835 444.949 438.378 445.133 440.879C446.633 461.187 448.848 488.1 446.767 504.807C442.939 535.552 441.431 556.365 435.249 584.659C425.772 628.043 417.297 668.849 420.704 712.981C421.198 719.369 420.385 726.237 427.059 734.45C433.709 742.634 465.585 746.104 482.301 752.116C486.231 753.527 484.445 759.752 480.27 759.836L405.639 760.892C399.24 761.021 393.956 755.959 393.77 749.555C392.71 712.985 394.337 700.375 390.091 640.304C388.109 612.247 388.569 609.563 389.274 584.659C389.854 564.133 389.349 538.249 390.238 517.868C391.142 497.088 380.721 438.104 388.276 408.423" fill="white"/>
<path d="M388.49 408.875C351.874 387.46 335.703 361.036 299.855 338.344C262.988 315.007 231.705 290.292 195.748 265.128C182.911 256.137 169.085 245.142 152.863 237.096C148.45 234.902 140.038 227.056 133.682 230.818C119.85 239.014 106.726 208.381 99.1692 197.651C86.1154 179.113 68.8318 139.356 108.797 184.108C113.695 189.597 126.39 196.927 133.41 200.649C174.294 222.322 204.051 235.406 245.673 251.901C272.312 262.468 296.093 277.344 322.435 287.974C346.865 297.832 367.794 305.397 394.813 311.878C418.59 317.587 434.541 321.752 454.937 327.981C454.937 327.981 447.167 351.248 446.404 375.309C445.133 415.385 451.4 432.699 451.4 432.699C452.008 434.835 444.949 438.378 445.133 440.879C446.633 461.187 448.848 488.1 446.767 504.807C442.939 535.552 441.431 556.365 435.249 584.659C425.772 628.043 417.297 668.849 420.704 712.981C421.198 719.369 420.385 726.237 427.059 734.45C433.709 742.634 465.585 746.104 482.301 752.116C486.231 753.527 484.445 759.752 480.27 759.836L405.639 760.892C399.24 761.021 393.956 755.959 393.77 749.555C392.71 712.985 394.337 700.375 390.091 640.304C388.109 612.247 388.569 609.563 389.274 584.659C389.854 564.133 389.349 538.249 390.238 517.868C391.142 497.088 380.721 438.104 388.276 408.423" stroke="black" stroke-width="5" stroke-miterlimit="10"/>
<path d="M388.49 408.875C351.874 387.46 335.703 361.036 299.855 338.344C262.988 315.007 231.705 290.292 195.748 265.128C182.911 256.137 169.085 245.142 152.863 237.096C148.45 234.902 140.038 227.056 133.682 230.818C119.85 239.014 106.726 208.381 99.1692 197.651C86.1154 179.113 68.8318 139.356 108.797 184.108C113.695 189.597 126.39 196.927 133.41 200.649C174.294 222.322 204.051 235.406 245.673 251.901C272.312 262.468 296.093 277.344 322.435 287.974C346.865 297.832 367.794 305.397 394.813 311.878C418.59 317.587 434.541 321.752 454.937 327.981C454.937 327.981 447.167 351.248 446.404 375.309C445.133 415.385 451.4 432.699 451.4 432.699C452.008 434.835 444.949 438.378 445.133 440.879C446.633 461.187 448.848 488.1 446.767 504.807C442.939 535.552 441.431 556.365 435.249 584.659C425.772 628.043 417.297 668.849 420.704 712.981C421.198 719.369 420.385 726.237 427.059 734.45C433.709 742.634 465.585 746.104 482.301 752.116C486.231 753.527 484.445 759.752 480.27 759.836L405.639 760.892C399.24 761.021 393.956 755.959 393.77 749.555C392.71 712.985 394.337 700.375 390.091 640.304C388.109 612.247 388.569 609.563 389.274 584.659C389.854 564.133 389.349 538.249 390.238 517.868C391.142 497.088 380.721 438.104 388.276 408.423" stroke="black" stroke-width="5" stroke-miterlimit="10"/>
<path d="M446.448 374.236C444.628 402 448.225 422.474 451.403 432.7C451.403 432.7 497.677 435.312 540.223 456.965C540.223 456.965 562.211 447.36 581.877 479.402C581.877 479.402 597.489 457.099 637.459 492.405L655.632 490.225L649.769 468.687C649.769 468.687 629.516 458.552 631.876 419.656C631.876 419.656 612.845 402.286 609.826 378.441C609.826 378.441 589.55 366.04 555.215 357.862C520.882 349.683 477.549 337.09 454.94 327.984C454.941 327.984 448.306 345.901 446.448 374.236Z" fill="white" stroke="black" stroke-width="5" stroke-miterlimit="10"/>
<path d="M446.448 374.236C444.628 402 448.225 422.474 451.403 432.7C451.403 432.7 497.677 435.312 540.223 456.965C540.223 456.965 562.211 447.36 581.877 479.402C581.877 479.402 597.489 457.099 637.459 492.405L655.632 490.225L649.769 468.687C649.769 468.687 629.516 458.552 631.876 419.656C631.876 419.656 612.845 402.286 609.826 378.441C609.826 378.441 589.55 366.04 555.215 357.862C520.882 349.683 477.549 337.09 454.94 327.984C454.941 327.984 448.306 345.901 446.448 374.236Z" stroke="black" stroke-width="5" stroke-miterlimit="10"/>
<path d="M634.859 495.937C634.919 503.836 641.134 508.065 644.271 516.161C649.251 529.023 670.329 532.377 683.22 523.933C700.24 512.782 664.869 449.383 654.049 454.174C647.64 457.011 639.568 468.446 637.345 483.082C636.625 487.791 634.859 495.937 634.859 495.937Z" fill="white" stroke="black" stroke-width="5" stroke-miterlimit="10"/>
<path d="M634.859 495.937C634.919 503.836 641.134 508.065 644.271 516.161C649.251 529.023 670.329 532.377 683.22 523.933C700.24 512.782 664.869 449.383 654.049 454.174C647.64 457.011 639.568 468.446 637.345 483.082C636.625 487.791 634.859 495.937 634.859 495.937Z" stroke="black" stroke-width="5" stroke-miterlimit="10"/>
<path d="M686.354 512.345C679.768 501.446 660.145 486.162 648.388 497.772C635.176 510.824 636.153 497.85 635.68 494.215C635.207 490.577 639.576 480.671 637.543 480.735C635.511 480.793 620.615 501.222 627.681 518.353C634.743 535.476 645.127 539.499 656.201 539.639C667.273 539.772 681.174 532.679 686.464 522.848C691.755 513.019 686.354 512.345 686.354 512.345Z" fill="black" stroke="black" stroke-width="5" stroke-miterlimit="10"/>
<path d="M631.874 429.29C617.876 413.111 597.36 404.753 582.826 423.292C566.62 443.967 576.475 457.466 590.308 473.25" stroke="black" stroke-width="5" stroke-miterlimit="10"/>
<path d="M168.905 218.682C166.382 224.277 164.22 234.983 163.121 242.717" stroke="black" stroke-width="5" stroke-miterlimit="10"/>
<path d="M393.027 698.819C395.723 701.553 415.579 701.178 420 698.819" stroke="black" stroke-width="5" stroke-miterlimit="10"/>
</svg>
